X: 200012
T: the Old Gray Ey'd Morning
%R: air, march,reel
B: James Oswald "The Caledonian Pocket Companion" v.2 p.1 #2
Z: 2019 John Chambers <jc:trillian.mit.edu>
M: C
L: 1/8
K: D
%%slurgraces 1
%%graceslurs 1
"_Slow"A |\
dcde Tf2Te>d | (f>g)(a>b) a3b | abaf (gf)(ed) | (cd)(ef) e3f |\
(gf)(ed) Tc2(BA) |
dcBA T^G3E | (Ac)(Bd) (ce)(fe) | {d}c2T(B>A) A3 :: (c/d/) |\
ecec A3a | afaf {e}d3f |
gB e{d}c {B}^A2gf | (ed) (Tc>B) B3F |\
BcdB g3f | gBed Tc3A | dfeg faba | (gf) (Te>d) d3 :|
